Sources/FrostedUI/Resources/Icons.xcassets/trashFilled32.imageset/trash-filled-32.svg

<svg width="32" height="32" viewBox="0 0 32 32" fill="none" xmlns="http://www.w3.org/2000/svg" data-fui-icon="true">
  <path
    d="M24.9209 10C25.5126 10.0002 25.9744 10.5118 25.915 11.1006L24.3906 26.2266C24.271 28.3417 22.5207 30 20.3975 30H11.6025C9.47928 30 7.729 28.3417 7.60938 26.2266L6.08496 11.1006C6.0256 10.5118 6.48736 10.0002 7.0791 10H24.9209ZM16.7363 2C18.8397 2.00024 20.6262 3.53907 20.9385 5.61914L21.1465 7H27.25C27.6642 7 28 7.33579 28 7.75C28 8.16421 27.6642 8.5 27.25 8.5H4.75C4.33579 8.5 4 8.16421 4 7.75C4 7.33579 4.33579 7 4.75 7H10.8535L11.0615 5.61914C11.3738 3.53907 13.1603 2.00024 15.2637 2H16.7363ZM15.2637 3.5C13.9027 3.50024 12.747 4.49593 12.5449 5.8418L12.3711 7H19.6289L19.4551 5.8418C19.253 4.49593 18.0973 3.50024 16.7363 3.5H15.2637Z"
    fill="currentColor"
  />
</svg>

<svg xmlns="http://www.w3.org/2000/svg" width="32" height="32" fill="none" data-fui-icon="true" viewBox="0 0 32 32"><path fill="currentColor" d="M24.92 10a1 1 0 0 1 .995 1.1l-1.524 15.127A4 4 0 0 1 20.398 30h-8.795a4 4 0 0 1-3.994-3.773L6.085 11.1A1 1 0 0 1 7.079 10zm-8.184-8a4.25 4.25 0 0 1 4.203 3.62L21.146 7h6.104a.75.75 0 0 1 0 1.5H4.75a.75.75 0 0 1 0-1.5h6.104l.208-1.38A4.25 4.25 0 0 1 15.264 2zm-1.472 1.5a2.75 2.75 0 0 0-2.72 2.342L12.372 7h7.258l-.174-1.158A2.75 2.75 0 0 0 16.736 3.5z"/></svg>
